humanity-icon-theme/Humanity/mimes/22/gnome-mime-application-pdf.svg

<?xml version="1.0" encoding="UTF-8" standalone="no"?>
<!-- Created with Inkscape (http://www.inkscape.org/) -->

<svg
   xmlns:svg="http://www.w3.org/2000/svg"
   xmlns="http://www.w3.org/2000/svg"
   xmlns:xlink="http://www.w3.org/1999/xlink"
   version="1.0"
   width="22"
   height="22"
   id="svg2755">
  <defs
     id="defs2757">
    <linearGradient
       id="linearGradient3681">
      <stop
         id="stop3683"
         style="stop-color:#f89b7e;stop-opacity:1"
         offset="0" />
      <stop
         id="stop3685"
         style="stop-color:#e35d4f;stop-opacity:1"
         offset="0.25" />
      <stop
         id="stop3687"
         style="stop-color:#c6262e;stop-opacity:1"
         offset="0.75235957" />
      <stop
         id="stop3689"
         style="stop-color:#690b2c;stop-opacity:1"
         offset="1" />
    </linearGradient>
    <linearGradient
       id="linearGradient3104">
      <stop
         id="stop3106"
         style="stop-color:#791235;stop-opacity:1"
         offset="0" />
      <stop
         id="stop3108"
         style="stop-color:#dd3b27;stop-opacity:1"
         offset="1" />
    </linearGradient>
    <linearGradient
       x1="-53.412315"
       y1="56.110264"
       x2="-51.786404"
       y2="2.9062471"
       id="linearGradient2664"
       xlink:href="#linearGradient3104"
       gradientUnits="userSpaceOnUse"
       gradientTransform="matrix(0.39222413,0,0,0.44736043,28.199995,0.76130823)" />
    <linearGradient
       id="linearGradient3211">
      <stop
         id="stop3213"
         style="stop-color:#ffffff;stop-opacity:1"
         offset="0" />
      <stop
         id="stop3215"
         style="stop-color:#ffffff;stop-opacity:0"
         offset="1" />
    </linearGradient>
    <linearGradient
       x1="24"
       y1="1.9999999"
       x2="24"
       y2="46.01725"
       id="linearGradient2656"
       xlink:href="#linearGradient3211"
       gradientUnits="userSpaceOnUse"
       gradientTransform="matrix(0.45455672,0,0,0.46511502,0.09087503,2.3372363)" />
    <linearGradient
       id="linearGradient8589">
      <stop
         id="stop8591"
         style="stop-color:#fefefe;stop-opacity:1"
         offset="0" />
      <stop
         id="stop8593"
         style="stop-color:#cbcbcb;stop-opacity:1"
         offset="1" />
    </linearGradient>
    <linearGradient
       x1="32.892288"
       y1="8.0590115"
       x2="36.358372"
       y2="5.4565363"
       id="linearGradient2652"
       xlink:href="#linearGradient8589"
       gradientUnits="userSpaceOnUse"
       gradientTransform="matrix(0.47785953,0,0,0.55248297,-0.62782413,1.9238789)" />
    <linearGradient
       id="linearGradient4246">
      <stop
         id="stop4248"
         style="stop-color:#ffffff;stop-opacity:1"
         offset="0" />
      <stop
         id="stop4250"
         style="stop-color:#dcdcdc;stop-opacity:1"
         offset="1" />
    </linearGradient>
    <linearGradient
       x1="23.969797"
       y1="3.9810441"
       x2="23.969797"
       y2="44.024017"
       id="linearGradient2888"
       xlink:href="#linearGradient4246"
       gradientUnits="userSpaceOnUse"
       gradientTransform="matrix(0.42106405,0,0,0.52631565,0.89469928,0.36842878)" />
    <radialGradient
       cx="8.1203003"
       cy="6.6278195"
       r="8.999999"
       fx="8.1203003"
       fy="6.6278195"
       id="radialGradient3679"
       xlink:href="#linearGradient3681"
       gradientUnits="userSpaceOnUse"
       gradientTransform="matrix(0.0144407,2.0653761,-3.0521747,0.02133904,27.232431,-9.638467)" />
  </defs>
  <g
     transform="translate(0,-2)"
     id="layer1">
    <path
       d="m 2.4999674,2.4999679 c 3.8956854,0 7.6046606,0 11.5003496,0 0.683386,0.2372968 4.541448,3.1281681 5.500149,5.000036 0,5.7291531 3.9e-5,10.2708411 3.9e-5,15.9999961 -5.666847,0 -11.3336914,0 -17.0005376,0 0,-7.333356 0,-13.6666786 0,-21.0000321 z"
       id="path4160"
       style="fill:url(#radialGradient3679);fill-opacity:1;stroke:url(#linearGradient2664);stroke-width:0.99993485;stroke-linecap:butt;stroke-linejoin:round;stroke-miterlimit:4;stroke-opacity:1;stroke-dasharray:none;stroke-dashoffset:0;display:inline" />
    <path
       d="M 12.60322,3.0000066 C 7.1494997,8.8582264 4.036308,9.6820783 3.0000193,9.7732602 l 0,2.1075578 C 3.7822098,11.744096 5.7444667,11.26973 7.8383858,9.6279115 10.523365,7.5226498 13.735604,3.5232623 13.735604,3.5232623 12.855259,5.6850428 12.605523,13.142551 12.588514,23 l 6.411938,0 c 0,-0.547757 0,-0.43763 0,-0.988373 C 17.957183,19.317989 17.276944,15.4314 16.765098,11.953492 16.462642,9.0802345 16.569224,7.0122289 16.810228,5.2821578 15.906041,4.523381 14.164984,3.3347447 13.596641,3.0000066 l -0.993422,0 z m -9.6032007,10.2034854 0,2.340116 C 5.264153,15.543607 8.7428564,18.940084 10.426691,23 l 1.411802,0 C 11.047302,19.30914 4.7273709,13.203492 3.0000193,13.203492 z"
       id="path6711"
       style="fill:url(#linearGradient2888);fill-opacity:1;fill-rule:evenodd;stroke:none" />
    <path
       d="M 15.939343,4.8604711 C 13.18916,6.7394651 7.5706928,9.9831612 3.0000193,9.4664092 l 0,4.1781198 c 0,-1e-6 12.3080257,2.190748 16.0004327,-2.436057 l 0,-3.6721468 C 18.362899,6.6833209 16.949543,5.6171178 15.939343,4.8604711 z M 19.000452,15.508411 C 17.531892,17.114201 15.729351,20.286692 14.465147,23 L 12.88264,22.98674 c 1.476706,-3.814926 3.864552,-7.562232 6.117812,-10.219295 l 0,2.740966 z"
       id="path6713"
       style="opacity:0.15;fill:#000000;fill-opacity:1;fill-rule:evenodd;stroke:none" />
    <path
       d="m 18.50044,7.6770395 c 0,5.2083015 0,9.6146565 0,14.8229605 -5.000136,0 -10.0002707,0 -15.0004072,0 0,-6.666666 0,-12.333332 0,-18.9999938 3.4373544,0 6.9566872,0 10.3940422,0"
       id="path2435"
       style="opacity:0.6;fill:none;stroke:url(#linearGradient2656);stroke-width:1.00001311;stroke-linecap:butt;stroke-linejoin:miter;stroke-miterlimit:4;stroke-opacity:1;stroke-dasharray:none;stroke-dashoffset:0;display:inline" />
    <path
       d="m 13.075473,2.0000002 c 1.156303,0.3287671 0.339059,4.6143789 0.339059,4.6143789 0,0 4.515388,-0.4277362 5.60771,1.1949961 1.489153,2.2122568 -0.06822,-0.6351721 -0.173447,-0.8216972 -0.755928,-1.3400455 -3.86634,-4.547086 -5.045409,-4.9412075 -0.08823,-0.029492 -0.283876,-0.04647 -0.727913,-0.04647 z"
       transform="matrix(1.0000271,0,0,0.9999994,-6.1046652e-5,1.0000076)"
       id="path3370"
       style="opacity:0.3;fill:#000000;fill-opacity:1;fill-rule:evenodd;stroke:none;display:inline" />
    <path
       d="m 13.00029,2.0000072 c 1.526207,0 1.000027,4.999997 1.000027,4.999997 0,0 6.074945,-0.4532597 6.074945,1.9999988 0,-0.5977415 0.04504,-1.8225001 -0.07478,-1.9999988 -0.839129,-1.243005 -4.670881,-4.6821191 -6.000162,-4.999997 -0.09048,-0.021638 -0.555978,0 -1.000027,0 z"
       id="path4474"
       style="fill:url(#linearGradient2652);fill-opacity:1;fill-rule:evenodd;stroke:none;display:inline" />
  </g>
</svg>

<?xml version="1.0" encoding="UTF-8" standalone="no"?>
<!-- Created with Inkscape (http://www.inkscape.org/) -->
<svg id="svg2755" xmlns="http://www.w3.org/2000/svg" height="22" width="22" version="1.0" xmlns:xlink="http://www.w3.org/1999/xlink">
 <defs id="defs2757">
  <linearGradient id="linearGradient2664" y2="2.9062" gradientUnits="userSpaceOnUse" x2="-51.786" gradientTransform="matrix(.39222 0 0 .44736 28.2 .76131)" y1="56.11" x1="-53.412">
   <stop id="stop3106" style="stop-color:#791235" offset="0"/>
   <stop id="stop3108" style="stop-color:#dd3b27" offset="1"/>
  </linearGradient>
  <linearGradient id="linearGradient2656" y2="46.017" gradientUnits="userSpaceOnUse" x2="24" gradientTransform="matrix(.45456 0 0 .46512 .090875 2.3372)" y1="2" x1="24">
   <stop id="stop3213" style="stop-color:#fff" offset="0"/>
   <stop id="stop3215" style="stop-color:#fff;stop-opacity:0" offset="1"/>
  </linearGradient>
  <linearGradient id="linearGradient2652" y2="5.4565" gradientUnits="userSpaceOnUse" x2="36.358" gradientTransform="matrix(.47786 0 0 .55248 -.62782 1.9239)" y1="8.059" x1="32.892">
   <stop id="stop8591" style="stop-color:#fefefe" offset="0"/>
   <stop id="stop8593" style="stop-color:#cbcbcb" offset="1"/>
  </linearGradient>
  <linearGradient id="linearGradient2888" y2="44.024" gradientUnits="userSpaceOnUse" x2="23.97" gradientTransform="matrix(.42106 0 0 .52632 .89470 .36843)" y1="3.981" x1="23.97">
   <stop id="stop4248" style="stop-color:#fff" offset="0"/>
   <stop id="stop4250" style="stop-color:#dcdcdc" offset="1"/>
  </linearGradient>
  <radialGradient id="radialGradient3679" gradientUnits="userSpaceOnUse" cy="6.6278" cx="8.1203" gradientTransform="matrix(.014441 2.0654 -3.0522 .021339 27.232 -9.6385)" r="9">
   <stop id="stop3683" style="stop-color:#f89b7e" offset="0"/>
   <stop id="stop3685" style="stop-color:#e35d4f" offset=".25"/>
   <stop id="stop3687" style="stop-color:#c6262e" offset=".75236"/>
   <stop id="stop3689" style="stop-color:#690b2c" offset="1"/>
  </radialGradient>
 </defs>
 <g id="layer1" transform="translate(0,-2)">
  <path id="path4160" style="stroke-linejoin:round;stroke:url(#linearGradient2664);stroke-width:.99993;fill:url(#radialGradient3679)" d="m2.5 2.5h11.5c0.68339 0.2373 4.5414 3.1282 5.5001 5 0 5.7292 0.000039 10.271 0.000039 16h-17.001v-21z"/>
  <path id="path6711" style="fill:url(#linearGradient2888);fill-rule:evenodd" d="m12.603 3c-5.4535 5.8582-8.5667 6.6821-9.603 6.7733v2.1076c0.7822-0.137 2.7445-0.611 4.8384-2.2531 2.6846-2.1053 5.8976-6.1046 5.8976-6.1046-0.881 2.1617-1.13 9.6197-1.147 19.477h6.4119v-0.98837c-1.044-2.694-1.724-6.581-2.236-10.059-0.302-2.8728-0.196-4.9408 0.045-6.6708-0.904-0.7588-2.645-1.9475-3.213-2.2822h-0.99342zm-9.6032 10.203v2.3401c2.2644 0.001 5.7431 3.397 7.4272 7.457h1.4118c-0.792-3.691-7.1116-9.797-8.839-9.797z"/>
  <path id="path6713" style="opacity:.15;fill-rule:evenodd" d="m15.939 4.8605c-2.75 1.879-8.3683 5.1227-12.939 4.6059v4.1781c0-0.000001 12.308 2.1907 16-2.4361v-3.6721c-0.637-0.8526-2.05-1.9188-3.061-2.6754zm3.061 10.648c-1.468 1.606-3.271 4.779-4.535 7.492l-1.582-0.013c1.4767-3.8149 3.8646-7.5622 6.1178-10.219v2.741z"/>
  <path id="path2435" style="opacity:.6;stroke:url(#linearGradient2656);fill:none" d="m18.5 7.677v14.823h-15v-19h10.394"/>
  <path id="path3370" style="opacity:.3;fill-rule:evenodd" d="m13.075 2c1.1563 0.32877 0.33906 4.6144 0.33906 4.6144s4.5154-0.42774 5.6077 1.195c1.4892 2.2123-0.06822-0.63517-0.17345-0.8217-0.75593-1.34-3.8663-4.5471-5.0454-4.9412-0.08823-0.029492-0.28388-0.04647-0.72791-0.04647z" transform="translate(-.000061047 1)"/>
  <path id="path4474" style="fill:url(#linearGradient2652);fill-rule:evenodd" d="m13 2c1.5262 0 1 5 1 5s6.0749-0.45326 6.0749 2c0-0.59774 0.04504-1.8225-0.07478-2-0.83913-1.243-4.6709-4.6821-6.0002-5-0.09048-0.021638-0.55598 0-1 0z"/>
 </g>
</svg>
